X:41
T:Breakdown
M:2/4
L:1/16
Z: Jason R. Fruit <Jason R. Fruit@big-mac>
N: Again from Bob Walters.  Similar to "Angus Campbell".
K:A
EF | A2cA EAce | a2ga fecA | dcBd cBAc | BcBG EGBG |
A2cA EAce | a2ga fecA | dcBd cBAc | BAGB A2 |]
fg | aece a2a2 | fece fecA | defe dcBA | GABc B2e2 |
aece a2ae | fece fecA | defe dcBA | GABG A2 |]
A,2 | A,CEA c2BA | GABc d2cB | cecA BAGB | AGAc BAEC | 
A,CEA c2BA | GABc d2cB | cecA BAGB |A2a2 A2 :|

